X:92
T:Waltz
O:No 92 Wm Clarke MS  Feltwell, Norfolk
N:Bar 8 rest added
N:Bar 10 should poss have C naturalised
I:abc2nwc
M:3/4
L:1/8
K:G
dc|Bd fB df|b2b2ag|fa ac' c'f|gf ge dc|
Bd fB df|b2b2{c'a}ag|fg ab c'f|g2z2:|
|:Bc|d^c dB"^*"cd|e2e2g2|fg ab c'f|gf ge dc|
Bd gB dg|e2e2ag|fg ab c'f|g3:|

